X:8
T:La Nol passe
T:(Nol du povret)
C:Harmonisation
C:Bernard Lallement
C:Paroles de F. Lozet
O:XVIIe sicle
M:3/4
L:1/4
%%staves 1 {(2 3) (4 5)}
K:Ab
V:1 name="Baryton solo"
C | FAc | G-G/z/ (G/A/) | BAG |
AzC | FAc | G-G/z/ (G/A/) | BAG |
F-F/z/ F | GGG | AAA | (B>A) G/F/ |
=EzF | GGG | AAA | (B>A) G/F/ | Hc2 ||
V:2 clef=treble
z | F3- | F3- | F2=E |
F2z | C3 | D3- | DCB, |
C2z | =E3 | F3 | (G_ED) |
!breath! C2F- | FED | C3 | (D2F) | H=E2 ||
V:3
x | C3 | D3- | DCB, |
A,2x | A,3 | B,3 | G,A,B, |
A,2x | C3- | C3 | ECB, |
(G,!breath!C) B,- | B,3- | B,A,G, | F,2B, | C2 ||
V:4 clef=bass
z | A,3 | B,3 | G,A,D |
C2z | F,3- | F,3- | F,2=E, |
F,2z | G,3 | A,3 | B,>A, G,/F,/ |
!breath!=E,2F, | G,3 | _E,3 | F,>A, G,/F,/ | HG,2 ||
V:5 
x | F,3- | F,3- | F,3- |
F,2x | [C,3F,,3-] | [B,,3-F,,3-] | [B,,F,,3-]C,D, |
[C,2F,,2]x | C,3 | F,3 | (E,A,,B,,) |
C,2D, | E,3 | A,,3 | (D,B,,D,) | C,2 ||
%%staves [1 2 3 4]
K:F
V:1 name=S
C | FFG | AA/z/ (A/B/) | cAF |
DD/z/D | GGA | BB/z/(B/c/) | dBG |
EE/z/C | FAc | D-D/z/B | AGF |
c-c/z/C | FAc | D-D/z/B | AG>F | F2 |]
V:2 name=A
C | CFE | FF/z/ F | FFC |
CB,/z/D | DG^F | GG/z/G | GGD |
DC/z/G, | CCC | (CB/)z/D | FED |
D-D/z/G, | CCC | (CB/)z/D | FFE | F2 |]
V:3 name=T
C | Acc | cc/z/c | ccA | 
FF/z/F | Bdd | dd/z/d | ddB |
GG/z/E | FFF | F-F/z/G | ABA |
G-G/z/E | FFF | F-F/z/G | Acc&xcB | c2&A2 |]
V:4 name=B
C, | F,,A,,C, | F,F,/z/ (F,/G,/) | A,F,F, |
B,,B,,/z/B,, | A,,B,,D, | G,G,/z/(G,/A,/) | B,G,G, |
C,C,/z/B,, | A,,F,,A,, | B,,-B,,/z/ G,, | C,C,C, |
C,-C,/z/B,, | A,,F,,A,, | B,,-B,,/z/A,, | C,C,C, | F,,2 |]
